X:1
T:046 - Jesus me Transformou
T:Letra: James Rowe (1865-1933)
T:Trad.: Salomão Luiz Ginsburg (1867-1927)
T:Música: Howard E. Smith (1863-1918)
M: 6/8
L: 1/8
Q:1/4=100
K:Bb
V:1
"Bb"F2G F2D| F2G2<F2| FGA B2c| "F7"A6|G2A G2E| G2A2<G2| GAB A2G| "Bb"F3 z3|F2G F2D| F2G2<F2| FGA B2F| "Eb"G6|G2A B2c| "Bb"d2B "Bb7"A3 | "Eb"G3 "F7"F2c| "Bb"B3 z3|| "Bb"d3 "F7"F2c| "Bb"B3-B2z| B3 "Bb7"D2A| "Eb"G3- "Cm"G2z | "Eb"G3 (GA)B | "Bb"F2B2<B2| "C"c3 "C7"G2d| "F"c3- "F7"c2z| "Bb"d3 "F7"F2c| "Bb"B3-B2z| B3 "Bb7"D2A| "Eb"G3-"Cm"G2z| "Eb"G3 (GA)B| "Bb"F2B2<B2| "Bb/F"d3 "F7"d2c| "Bb"B3-B2z|]
w: 1.~Eu, per-di-do pe-ca-dor, Lon-ge do meu Je-sus, Já mea-cha-va sem vi-gor, A pe-re-cer sem luz; Meu es-ta-do Cris-to viu, Dan-do-me su-a mão, E sal-var-me con-se-guiu, Da per-di-ção.  Cris-to mea-mou,_ e me li-vrou;_  O seu_ i-men-soa-mor Me trans-for-mou_ Foi seu po-der,_ o seu que-rer,_ Sim Cris_to,o Sal-va-dor, Me trans-for-mou._
w: 2.~Mi-nha vi-da, to-doo ser, Que-ro-Lhe con-sa-grar; A seu la-do vou vi-ver, O seu a-mor can-tar, A men-sa-gem trans-mi-tir Aos que per-di-dos são. Ve-nham to-dos já fru-ir A sal-va-ção.
W: 
W:
W: 1. Eu, perdido pecador,
W: Longe do meu Jesus,
W: Já me achava sem vigor,
W: A perecer sem luz;
W: Meu estado Cristo viu,
W: Dando-me sua mão,
W: E salvar-me conseguiu,
W: Da perdição.
W:  
W:    (Estribilho)
W:    Cristo me amou, e me livrou;
W:    O seu imenso amor  
W:    Me transformou
W:    Foi seu poder, o seu querer,
W:    Sim Cristo, o Salvador,
W:    Me transformou.
W:
W:
W:         
W: 2. Minha vida, todo o ser,
W: Quero-Lhe consagrar;
W: A seu lado vou viver,
W: O seu amor cantar,
W: A mensagem transmitir
W: Aos que perdidos são.
W: Venham todos já fruir
W: A salvação.
W:





%wordsfont Times-Roman 13.0
%vocalfont Times-Roman 13.0
